X: 27078
T: Miss Johnstone's
R: slip jig
M: 9/8
K: Gmajor
|:B2 d c2 A GAG|D2 G B2 A G2 g|f2 d c2 A G2 D|F2 G A2 B cBA:|
|:Bcd c2 e d2 c|B2 d g2 a bag|1 Bcd c2 e d2 f|a3 f2 a gfe:|2 b2 g agf g2 e|d2 A F2 A cBA||

